images/panga.svg

<svg width="143" height="138" viewBox="0 0 143 138" fill="none" xmlns="http://www.w3.org/2000/svg">
<g opacity="0.05">
<path d="M85.0338 80.9799C84.9477 71.9945 80.3533 63.7782 72.7428 59.0021C65.1324 54.226 55.7357 53.6619 47.6077 57.4924L28.0203 66.7213C24.7707 68.2522 22.1555 70.7364 20.4587 73.9028C18.7614 77.0699 18.1423 80.6224 18.6667 84.1781C19.1937 87.7325 20.816 90.9541 23.3577 93.4947C25.8995 96.0352 29.1233 97.6546 32.6791 98.1786L32.9177 98.2129C41.8266 99.5929 49.8228 104.65 54.8871 112.116C56.1938 114.041 57.8537 115.642 59.7828 116.853C60.8316 117.511 61.9614 118.054 63.1562 118.472C66.5489 119.657 70.1553 119.716 73.5864 118.645C77.0157 117.573 79.9466 115.471 82.0615 112.565C84.1764 109.659 85.2757 106.224 85.2419 102.631L85.0338 80.9799Z" fill="#78C0DE"/>
<path d="M40.388 52.9339C44.0422 53.6507 47.7682 52.6818 50.8795 50.2051C53.8406 47.8486 55.896 44.3802 56.6667 40.4375C57.4354 36.4964 56.8369 32.5098 54.9816 29.211C53.0324 25.7464 49.9466 23.4448 46.2959 22.7331C38.955 21.2955 31.6546 26.9005 30.0207 35.2316C28.7277 41.8674 31.4156 48.2553 36.2731 51.3037C37.5135 52.0821 38.8954 52.6426 40.388 52.9339Z" fill="#78C0DE"/>
<path d="M67.1843 52.8892C74.5774 57.5289 84.893 54.4509 90.1791 46.0278C95.4665 37.6025 93.753 26.9736 86.3599 22.3338C78.9674 17.6945 68.6517 20.7743 63.3642 29.1996C58.0781 37.6228 59.7918 48.2499 67.1843 52.8892Z" fill="#78C0DE"/>
<path d="M87.9848 71.1741L87.9855 71.1745C88.8859 72.2657 89.9329 73.1742 91.0883 73.8993C96.4799 77.2829 104.197 76.6561 109.987 71.8834C113.32 69.1364 115.548 65.4179 116.259 61.4137C117.005 57.2222 116.021 53.2229 113.489 50.1517C110.957 47.08 107.218 45.3519 102.961 45.284C98.8948 45.219 94.8202 46.6971 91.4882 49.445C84.4582 55.2411 82.8866 64.9888 87.9848 71.1741Z" fill="#78C0DE"/>
<path d="M117.34 87.1113L117.339 87.1079C114.604 80.142 105.955 76.9892 98.0554 80.0808C90.1586 83.1779 85.952 91.3641 88.6775 98.328C89.671 100.869 91.4521 102.903 93.6974 104.312C97.6105 106.768 102.935 107.325 107.962 105.36C115.858 102.263 120.065 94.077 117.34 87.1113Z" fill="#78C0DE"/>
</g>
</svg>

<svg width="143" height="138" fill="none" xmlns="http://www.w3.org/2000/svg"><g opacity=".05" fill="#78C0DE"><path d="M85.034 80.98c-.086-8.986-4.68-17.202-12.291-21.978-7.61-4.776-17.007-5.34-25.135-1.51l-19.588 9.23a16.497 16.497 0 0 0-7.561 7.18 16.502 16.502 0 0 0-1.792 10.276 16.504 16.504 0 0 0 4.69 9.317 16.495 16.495 0 0 0 9.322 4.684l.239.034a32.65 32.65 0 0 1 21.97 13.903 16.53 16.53 0 0 0 4.895 4.737 16.747 16.747 0 0 0 3.373 1.619 16.5 16.5 0 0 0 10.43.173 16.495 16.495 0 0 0 8.475-6.08 16.5 16.5 0 0 0 3.18-9.934l-.207-21.651ZM40.388 52.934c3.654.717 7.38-.252 10.492-2.729 2.96-2.356 5.016-5.825 5.787-9.767.768-3.942.17-7.928-1.685-11.227-1.95-3.465-5.035-5.766-8.686-6.478-7.341-1.438-14.641 4.168-16.275 12.499-1.293 6.635 1.395 13.023 6.252 16.072a12.067 12.067 0 0 0 4.115 1.63ZM67.184 52.89c7.393 4.639 17.709 1.56 22.995-6.862 5.287-8.425 3.574-19.054-3.82-23.694-7.392-4.64-17.707-1.56-22.995 6.866-5.286 8.423-3.572 19.05 3.82 23.69ZM87.985 71.174c.9 1.092 1.948 2 3.103 2.725 5.392 3.384 13.109 2.757 18.899-2.016 3.333-2.747 5.561-6.465 6.272-10.47.746-4.19-.238-8.19-2.77-11.261-2.532-3.072-6.271-4.8-10.528-4.868-4.066-.065-8.14 1.413-11.473 4.161-7.03 5.796-8.601 15.544-3.503 21.73ZM117.34 87.111l-.001-.003c-2.735-6.966-11.384-10.119-19.284-7.027-7.896 3.097-12.103 11.283-9.378 18.247.994 2.541 2.775 4.575 5.02 5.984 3.913 2.456 9.238 3.013 14.265 1.048 7.896-3.097 12.103-11.283 9.378-18.249Z"/></g></svg>
